svgs/thin/trash-can-undo.svg

<svg xmlns="http://www.w3.org/2000/svg" viewBox="0 0 448 512"><!--! Font Awesome Pro 6.0.0-alpha3 by @fontawesome - https://fontawesome.com License - https://fontawesome.com/license (Commercial License) --><path d="M408 120c-4.406 0-8 3.578-8 8v312c0 30.88-25.12 56-56 56h-240c-30.88 0-56-25.12-56-56V128c0-4.422-3.594-8-8-8S32 123.6 32 128v312C32 479.7 64.31 512 104 512h240c39.69 0 72-32.3 72-72V128C416 123.6 412.4 120 408 120zM440 64h-116.6l-20.95-41.88C295.6 8.469 281.9 0 266.7 0H181.3C166.1 0 152.4 8.469 145.6 22.11L124.6 64H8C3.594 64 0 67.58 0 72S3.594 80 8 80h432C444.4 80 448 76.42 448 72S444.4 64 440 64zM142.5 64l17.37-34.75C163.1 21.08 172.2 16 181.3 16h85.31c9.156 0 17.38 5.078 21.47 13.27L305.5 64H142.5zM200 191.1c0-2.156-.875-4.312-2.594-5.906C194.2 183.1 189.1 183.3 186.1 186.6L98.11 282.6c-2.812 3.062-2.812 7.75 0 10.81L186.1 389.4c2.984 3.25 8.047 3.469 11.3 .5c3.281-3.062 3.5-8.094 .4844-11.31L122.2 296H256c30.88 0 56 25.12 56 56v32c0 4.422 3.594 8 8 8s8-3.578 8-8v-32c0-39.7-32.31-72-72-72H122.2l75.7-82.6C199.3 195.9 200 193.9 200 191.1z"/></svg>

<svg xmlns="http://www.w3.org/2000/svg" viewBox="0 0 448 512"><!-- Font Awesome Pro 6.0.0-alpha2 by @fontawesome - https://fontawesome.com License - https://fontawesome.com/license (Commercial License) --><path d="M408 120C403.594 120 400 123.578 400 128V440C400 470.875 374.875 496 344 496H104C73.125 496 48 470.875 48 440V128C48 123.578 44.406 120 40 120S32 123.578 32 128V440C32 479.703 64.312 512 104 512H344C383.688 512 416 479.703 416 440V128C416 123.578 412.406 120 408 120ZM440 64H323.383L302.438 22.125C295.625 8.469 281.938 0 266.656 0H181.344C166.062 0 152.375 8.469 145.562 22.109L124.617 64H8C3.594 64 0 67.578 0 72S3.594 80 8 80H440C444.406 80 448 76.422 448 72S444.406 64 440 64ZM142.508 64L159.875 29.25C163.969 21.078 172.188 16 181.344 16H266.656C275.812 16 284.031 21.078 288.125 29.266L305.492 64H142.508ZM200.004 191.996C200.004 189.84 199.129 187.684 197.41 186.09C194.16 183.121 189.098 183.34 186.113 186.59L98.109 282.594C95.297 285.656 95.297 290.344 98.109 293.406L186.113 389.41C189.098 392.66 194.16 392.879 197.41 389.91C200.691 386.848 200.91 381.816 197.895 378.598L122.193 296H256C286.875 296 312 321.125 312 352V384C312 388.422 315.594 392 320 392S328 388.422 328 384V352C328 312.297 295.688 280 256 280H122.193L197.895 197.402C199.316 195.871 200.004 193.934 200.004 191.996Z"/></svg>
